X: 1
T:Glendale
R:reel
C:Dougie MacDonald
O:20th century Cape Breton
D:A Miner
N:Bookings,Mechanicals etc.
N:..... Dougie MacDonald <dougie@cranfordpub.com>
N:More tunes and information <http://www.cranfordpub.com/dougie>
Z:This abc transcription is for personal use only,
Z:provided this notice remains attached.
Z:Used by permission of the composer.
Z:Paul Stewart Cranford 
Q:333
L:1/8
M:C|
K:Bminor
zg|:fecf B/B/B cB|c2Bc ABce|fddf (c/d/e) ec|dBBd cAce|!
fecf B/B/B cB|c2Bc ABcA|dBFB ^GAEA|[1FECA, B,2 bg:|[2 FECA, B,2 ||!
|:dc|BB, B,/B,/B, D2 CD|B,DFB dBFB|cAE^G A2 EC|A,2 CE Afec|!
BB, B,/B,/B, D2 CD|B,DFB dBFB|A/A/A cB AFEF|AFEC B,2:|!
